packages/tokens/icons/bubble/size32Px.svg

<svg viewBox="0 0 32 32" fill="none" xmlns="http://www.w3.org/2000/svg" width="1em" height="1em"><path d="M2.5 4.5C2.5 3.41972 3.33849 2.5766 4.33333 2.5766L27.6667 2.5766C28.6615 2.5766 29.5 3.41972 29.5 4.5V23.3872C29.5 24.4675 28.6615 25.3106 27.6667 25.3106H10.4362C9.79437 25.3106 9.17716 25.5574 8.71234 25.9999L5.56526 28.9961C4.41576 30.0905 2.5 29.281 2.5 27.5718L2.5 4.5Z" stroke="currentColor" stroke-linecap="round" stroke-linejoin="round"/></svg>

<svg xmlns="http://www.w3.org/2000/svg" fill="none" viewBox="0 0 32 32" width="1em" height="1em"><path stroke="currentColor" stroke-linecap="round" stroke-linejoin="round" d="M2.5 4.5c0-1.08.838-1.923 1.833-1.923h23.334c.994 0 1.833.843 1.833 1.923v18.887c0 1.08-.838 1.924-1.833 1.924h-17.23A2.5 2.5 0 0 0 8.711 26l-3.147 2.996c-1.15 1.095-3.065.285-3.065-1.424V4.5Z"/></svg>
